src/assets/duotone/ReceiveSquare.svg

<svg width="24" height="24" viewBox="0 0 24 24"  xmlns="http://www.w3.org/2000/svg">
<path opacity="0.4" d="M16.19 2H7.82C4.17 2 2 4.17 2 7.81V16.18C2 19.82 4.17 21.99 7.81 21.99H16.18C19.82 21.99 21.99 19.82 21.99 16.18V7.81C22 4.17 19.83 2 16.19 2Z" />
<path d="M11.4704 15.04C11.5404 15.11 11.6204 15.16 11.7104 15.2C11.8004 15.24 11.9004 15.26 12.0004 15.26C12.1004 15.26 12.1904 15.24 12.2904 15.2C12.3804 15.16 12.4604 15.11 12.5304 15.04L15.5304 12.04C15.8204 11.75 15.8204 11.27 15.5304 10.98C15.2404 10.69 14.7604 10.69 14.4704 10.98L12.7504 12.7V6.51001C12.7504 6.10001 12.4104 5.76001 12.0004 5.76001C11.5904 5.76001 11.2504 6.10001 11.2504 6.51001V12.7L9.53043 10.98C9.24043 10.69 8.76043 10.69 8.47043 10.98C8.18043 11.27 8.18043 11.75 8.47043 12.04L11.4704 15.04Z" />
<path d="M18.7102 16.28C18.5802 15.89 18.1602 15.68 17.7602 15.81C14.0402 17.05 9.95018 17.05 6.23018 15.81C5.84018 15.68 5.41018 15.89 5.28018 16.28C5.15018 16.67 5.36018 17.1 5.75018 17.23C7.76018 17.9 9.87018 18.24 11.9902 18.24C14.1102 18.24 16.2202 17.9 18.2302 17.23C18.6302 17.09 18.8402 16.67 18.7102 16.28Z" />
</svg>

<?xml version="1.0" encoding="UTF-8"?>
<svg width="24" height="24" viewBox="0 0 24 24" xmlns="http://www.w3.org/2000/svg">
 <path d="m16.19 2h-8.37c-3.65 0-5.82 2.17-5.82 5.81v8.37c0 3.64 2.17 5.81 5.81 5.81h8.37c3.64 0 5.81-2.17 5.81-5.81v-8.37c0.01-3.64-2.16-5.81-5.8-5.81z" opacity=".4"/>
 <path d="m11.47 15.04c0.07 0.07 0.15 0.12 0.24 0.16s0.19 0.06 0.29 0.06 0.19-0.02 0.29-0.06c0.09-0.04 0.17-0.09 0.24-0.16l3-3c0.29-0.29 0.29-0.77 0-1.06s-0.77-0.29-1.06 0l-1.72 1.72v-6.19c0-0.41-0.34-0.75-0.75-0.75s-0.75 0.34-0.75 0.75v6.19l-1.72-1.72c-0.29-0.29-0.77-0.29-1.06 0s-0.29 0.77 0 1.06l3 3z"/>
 <path d="m18.71 16.28c-0.13-0.39-0.55-0.6-0.95-0.47-3.72 1.24-7.81 1.24-11.53 0-0.39-0.13-0.82 0.08-0.95 0.47s0.08 0.82 0.47 0.95c2.01 0.67 4.12 1.01 6.24 1.01 2.12 0 4.23-0.34 6.24-1.01 0.4-0.14 0.61-0.56 0.48-0.95z"/>
</svg>
